public/logos/4G.svg

<?xml version="1.0" encoding="UTF-8"?>
<svg xmlns="http://www.w3.org/2000/svg" xmlns:xlink="http://www.w3.org/1999/xlink" width="119.91pt" height="59pt" viewBox="0 0 119.91 59" version="1.1">
<defs>
<clipPath id="clip1">
  <path d="M 104 18 L 119.910156 18 L 119.910156 39 L 104 39 Z M 104 18 "/>
</clipPath>
<clipPath id="clip2">
  <path d="M 37 42 L 119.910156 42 L 119.910156 58 L 37 58 Z M 37 42 "/>
</clipPath>
</defs>
<g id="surface1">
<g clip-path="url(#clip1)" clip-rule="nonzero">
<path style=" stroke:none;fill-rule:nonzero;fill:rgb(19.848633%,43.35022%,75.067139%);fill-opacity:1;" d="M 119.675781 18.058594 L 119.675781 38.480469 L 115.722656 38.480469 L 115.722656 25.671875 L 115.59375 25.671875 L 113.554688 38.480469 L 110.398438 38.480469 L 108.371094 25.671875 L 108.230469 25.671875 L 108.230469 38.480469 L 104.292969 38.480469 L 104.292969 18.058594 L 109.414062 18.058594 L 111.976562 32.402344 L 114.550781 18.058594 L 119.675781 18.058594 "/>
</g>
<path style=" stroke:none;fill-rule:nonzero;fill:rgb(19.848633%,43.35022%,75.067139%);fill-opacity:1;" d="M 98.773438 18.058594 C 101.53125 18.058594 101.703125 20.269531 101.703125 21.703125 L 101.703125 34.820312 C 101.703125 36.257812 101.53125 38.480469 98.773438 38.480469 L 95.523438 38.480469 C 92.75 38.480469 92.59375 36.257812 92.59375 34.820312 L 92.59375 21.703125 C 92.59375 20.269531 92.75 18.058594 95.523438 18.058594 Z M 97.777344 35.171875 L 97.777344 21.253906 C 97.777344 20.902344 97.523438 20.589844 97.15625 20.589844 C 96.929688 20.589844 96.535156 20.730469 96.535156 21.253906 L 96.535156 35.171875 C 96.535156 35.695312 96.929688 35.835938 97.15625 35.835938 C 97.523438 35.835938 97.777344 35.523438 97.777344 35.171875 "/>
<path style=" stroke:none;fill-rule:nonzero;fill:rgb(19.848633%,43.35022%,75.067139%);fill-opacity:1;" d="M 90.007812 21.703125 L 90.007812 27.882812 C 90.007812 29.316406 89.835938 31.527344 87.078125 31.527344 L 84.828125 31.527344 L 84.828125 38.480469 L 80.886719 38.480469 L 80.886719 18.058594 L 87.078125 18.058594 C 89.835938 18.058594 90.007812 20.269531 90.007812 21.703125 Z M 86.050781 28.261719 L 86.050781 21.605469 C 86.050781 20.972656 85.757812 20.589844 85.320312 20.589844 L 84.828125 20.589844 L 84.828125 29.277344 L 85.320312 29.277344 C 85.757812 29.277344 86.050781 28.910156 86.050781 28.261719 "/>
<path style=" stroke:none;fill-rule:nonzero;fill:rgb(19.848633%,43.35022%,75.067139%);fill-opacity:1;" d="M 73.117188 20.589844 L 73.117188 38.480469 L 69.160156 38.480469 L 69.160156 18.058594 L 78.296875 18.058594 L 78.296875 38.480469 L 74.355469 38.480469 L 74.355469 20.589844 L 73.117188 20.589844 "/>
<path style=" stroke:none;fill-rule:nonzero;fill:rgb(19.848633%,43.35022%,75.067139%);fill-opacity:1;" d="M 63.644531 38.480469 L 60.378906 38.480469 C 57.621094 38.480469 57.453125 36.257812 57.453125 34.820312 L 57.453125 31.332031 L 61.40625 31.332031 L 61.40625 35.171875 C 61.40625 35.695312 61.785156 35.835938 62.027344 35.835938 C 62.378906 35.835938 62.632812 35.523438 62.632812 35.171875 L 62.632812 30.414062 C 62.632812 29.78125 62.519531 29.078125 61.054688 29.078125 L 59.453125 29.078125 L 59.453125 26.839844 L 61.109375 26.839844 C 62.238281 26.839844 62.632812 26.574219 62.632812 25.320312 L 62.632812 21.253906 C 62.632812 20.902344 62.378906 20.589844 62.027344 20.589844 C 61.785156 20.589844 61.40625 20.730469 61.40625 21.253906 L 61.40625 24.589844 L 57.453125 24.589844 L 57.453125 21.703125 C 57.453125 20.269531 57.621094 18.058594 60.378906 18.058594 L 63.644531 18.058594 C 66.402344 18.058594 66.585938 20.269531 66.585938 21.703125 L 66.585938 24.96875 C 66.585938 27.179688 65.09375 27.796875 63.898438 27.742188 L 63.898438 27.9375 C 66.542969 27.882812 66.585938 29.976562 66.585938 30.710938 L 66.585938 34.820312 C 66.585938 36.257812 66.402344 38.480469 63.644531 38.480469 "/>
<path style=" stroke:none;fill-rule:nonzero;fill:rgb(19.848633%,43.35022%,75.067139%);fill-opacity:1;" d="M 53.707031 18.058594 L 55.765625 38.480469 L 51.90625 38.480469 L 51.539062 33.046875 L 49.683594 33.046875 L 49.316406 38.480469 L 45.460938 38.480469 L 47.515625 18.058594 Z M 51.402344 30.808594 L 50.722656 20.589844 L 50.5 20.589844 L 49.824219 30.808594 L 51.402344 30.808594 "/>
<path style=" stroke:none;fill-rule:nonzero;fill:rgb(19.848633%,43.35022%,75.067139%);fill-opacity:1;" d="M 45.363281 18.058594 L 45.363281 20.589844 L 41.785156 20.589844 L 41.785156 38.480469 L 37.847656 38.480469 L 37.847656 18.058594 L 45.363281 18.058594 "/>
<path style=" stroke:none;fill-rule:nonzero;fill:rgb(19.848633%,43.35022%,75.067139%);fill-opacity:1;" d="M 32.625 10.65625 C 33.863281 16.128906 33.847656 19.492188 33.300781 23.335938 C 32.328125 30.246094 29.175781 35.539062 27.824219 37.3125 C 26.882812 36.101562 25.460938 33.652344 24.503906 31.359375 C 24.503906 31.359375 22.714844 26.996094 22.238281 22.746094 C 22.082031 21.40625 22 20.054688 22 18.691406 C 22 15.722656 22.394531 12.652344 23.347656 9.316406 C 24.617188 4.953125 27.121094 1.015625 27.796875 0 C 28.234375 0.71875 31.371094 5.179688 32.625 10.65625 Z M 32.257812 19.957031 C 32.300781 17.859375 32.089844 14.316406 31.078125 10.613281 C 30.050781 6.910156 28.078125 3.378906 27.78125 2.925781 C 27.488281 3.378906 25.910156 6.25 24.53125 10.726562 C 24.164062 12.0625 23.503906 14.976562 23.390625 17.820312 C 23.25 21.253906 23.730469 24.671875 23.914062 25.628906 C 23.914062 24.503906 23.941406 20.703125 24.644531 17.566406 C 25.347656 14.425781 26.683594 10.808594 27.78125 8.964844 C 28.964844 10.90625 30.445312 15.089844 30.964844 17.578125 C 31.484375 20.085938 31.753906 23.292969 31.640625 25.558594 C 31.964844 24.25 32.203125 22.039062 32.257812 19.957031 Z M 27.796875 35.945312 C 28.445312 34.765625 29.527344 32.175781 29.445312 28.882812 C 29.304688 25.519531 28.164062 23.070312 27.824219 22.476562 C 27.429688 23.070312 26.121094 25.882812 26.136719 29.175781 C 26.234375 32.582031 27.191406 34.792969 27.796875 35.945312 "/>
<path style=" stroke:none;fill-rule:nonzero;fill:rgb(19.848633%,43.35022%,75.067139%);fill-opacity:1;" d="M 35.3125 52.539062 C 31.582031 56.507812 26.292969 59 20.40625 59 C 9.136719 59 0 49.867188 0 38.578125 C 0 27.320312 9.136719 18.171875 20.40625 18.171875 L 20.40625 33.527344 C 17.480469 33.527344 14.554688 34.636719 12.300781 36.875 C 11.765625 37.410156 11.300781 37.988281 10.894531 38.578125 C 7.894531 43.039062 8.359375 49.148438 12.300781 53.089844 C 14.554688 55.328125 17.480469 56.453125 20.40625 56.453125 C 23.335938 56.453125 26.25 55.339844 28.488281 53.117188 C 28.5 53.105469 28.515625 53.105469 28.515625 53.089844 C 28.53125 53.074219 28.542969 53.074219 28.558594 53.0625 C 30.796875 50.824219 30.796875 47.179688 28.558594 44.941406 C 26.304688 42.703125 22.675781 42.703125 20.4375 44.941406 C 20.421875 44.953125 20.421875 44.953125 20.40625 44.96875 L 20.40625 38.578125 L 35.3125 38.578125 L 35.3125 52.539062 "/>
<g clip-path="url(#clip2)" clip-rule="nonzero">
<path style=" stroke:none;fill-rule:nonzero;fill:rgb(19.848633%,43.35022%,75.067139%);fill-opacity:1;" d="M 119.910156 57.550781 L 37.910156 57.550781 L 37.910156 42.550781 L 119.910156 42.550781 L 119.910156 57.550781 "/>
</g>
<path style=" stroke:none;fill-rule:nonzero;fill:rgb(100%,100%,100%);fill-opacity:1;" d="M 43.46875 52.082031 C 43.320312 50.804688 43.167969 49.230469 43.019531 47.355469 C 42.722656 49.511719 42.535156 51.085938 42.460938 52.082031 Z M 45.019531 44.847656 L 46.691406 56.097656 L 43.699219 56.097656 L 43.542969 54.074219 L 42.496094 54.074219 L 42.320312 56.097656 L 39.292969 56.097656 L 40.789062 44.847656 L 45.019531 44.847656 "/>
<path style=" stroke:none;fill-rule:nonzero;fill:rgb(100%,100%,100%);fill-opacity:1;" d="M 67.332031 51.023438 L 67.332031 54.171875 C 67.742188 54.160156 68.007812 54.09375 68.121094 53.976562 C 68.234375 53.863281 68.289062 53.578125 68.289062 53.125 L 68.289062 52.074219 C 68.289062 51.59375 68.238281 51.300781 68.136719 51.199219 C 68.035156 51.097656 67.765625 51.039062 67.332031 51.023438 Z M 67.332031 46.773438 L 67.332031 49.273438 C 67.457031 49.269531 67.554688 49.265625 67.621094 49.265625 C 67.910156 49.265625 68.09375 49.195312 68.171875 49.054688 C 68.25 48.914062 68.289062 48.507812 68.289062 47.84375 C 68.289062 47.488281 68.257812 47.242188 68.191406 47.101562 C 68.128906 46.960938 68.042969 46.871094 67.941406 46.835938 C 67.835938 46.796875 67.632812 46.777344 67.332031 46.773438 Z M 64.40625 44.847656 L 67.324219 44.847656 C 68.246094 44.847656 68.945312 44.917969 69.417969 45.0625 C 69.894531 45.207031 70.277344 45.496094 70.570312 45.933594 C 70.863281 46.371094 71.007812 47.078125 71.007812 48.046875 C 71.007812 48.707031 70.90625 49.164062 70.699219 49.421875 C 70.492188 49.679688 70.085938 49.882812 69.476562 50.019531 C 70.15625 50.171875 70.613281 50.425781 70.855469 50.78125 C 71.09375 51.136719 71.214844 51.679688 71.214844 52.414062 L 71.214844 53.457031 C 71.214844 54.214844 71.128906 54.78125 70.957031 55.144531 C 70.78125 55.511719 70.503906 55.761719 70.125 55.894531 C 69.746094 56.03125 68.96875 56.097656 67.789062 56.097656 L 64.40625 56.097656 L 64.40625 44.847656 "/>
<path style=" stroke:none;fill-rule:nonzero;fill:rgb(100%,100%,100%);fill-opacity:1;" d="M 95.539062 56.097656 L 93.09375 56.097656 L 93.09375 50.976562 L 91.570312 56.097656 L 89.007812 56.097656 L 89.007812 44.839844 L 91.453125 44.839844 L 91.453125 49.917969 L 93.09375 44.839844 L 95.539062 44.839844 L 95.539062 56.097656 "/>
<path style=" stroke:none;fill-rule:nonzero;fill:rgb(100%,100%,100%);fill-opacity:1;" d="M 114.933594 52.082031 C 114.785156 50.804688 114.636719 49.230469 114.488281 47.355469 C 114.191406 49.511719 114.003906 51.085938 113.929688 52.082031 Z M 116.484375 44.847656 L 118.15625 56.097656 L 115.167969 56.097656 L 115.011719 54.074219 L 113.964844 54.074219 L 113.789062 56.097656 L 110.765625 56.097656 L 112.257812 44.847656 L 116.484375 44.847656 "/>
</g>
</svg>

<svg xmlns="http://www.w3.org/2000/svg" width="159.88" height="59pt" viewBox="0 0 119.91 59"><defs><clipPath id="a"><path d="M104 18h15.91v21H104Zm0 0"/></clipPath><clipPath id="b"><path d="M37 42h82.91v16H37Zm0 0"/></clipPath></defs><g clip-path="url(#a)"><path d="M119.676 18.059V38.48h-3.953V25.672h-.13l-2.038 12.808h-3.157l-2.027-12.808h-.14V38.48h-3.938V18.06h5.121l2.563 14.343 2.574-14.343z" style="stroke:none;fill-rule:nonzero;fill:#336fbf;fill-opacity:1"/></g><path d="M98.773 18.059c2.758 0 2.93 2.21 2.93 3.644V34.82c0 1.438-.172 3.66-2.93 3.66h-3.25c-2.773 0-2.93-2.222-2.93-3.66V21.703c0-1.433.157-3.644 2.93-3.644Zm-.996 17.113V21.254c0-.352-.254-.664-.62-.664-.227 0-.622.14-.622.664v13.918c0 .523.395.664.621.664.367 0 .621-.313.621-.664M90.008 21.703v6.18c0 1.433-.172 3.644-2.93 3.644h-2.25v6.953h-3.941V18.06h6.191c2.758 0 2.93 2.21 2.93 3.644m-3.957 6.559v-6.657c0-.632-.293-1.015-.73-1.015h-.493v8.687h.492c.438 0 .73-.367.73-1.015M73.117 20.59v17.89H69.16V18.06h9.137V38.48h-3.942V20.59zM63.645 38.48h-3.266c-2.758 0-2.926-2.222-2.926-3.66v-3.488h3.953v3.84c0 .523.38.664.621.664.352 0 .606-.313.606-.664v-4.758c0-.633-.113-1.336-1.578-1.336h-1.602V26.84h1.656c1.13 0 1.524-.266 1.524-1.52v-4.066c0-.352-.254-.664-.606-.664-.242 0-.62.14-.62.664v3.336h-3.954v-2.887c0-1.433.168-3.644 2.926-3.644h3.266c2.757 0 2.94 2.21 2.94 3.644v3.266c0 2.21-1.491 2.828-2.687 2.773v.195c2.645-.054 2.688 2.04 2.688 2.774v4.11c0 1.437-.184 3.66-2.941 3.66M53.707 18.059l2.059 20.421h-3.86l-.367-5.433h-1.855l-.368 5.433h-3.855l2.055-20.421Zm-2.305 12.75-.68-10.22H50.5l-.676 10.22zM45.363 18.059v2.53h-3.578V38.48h-3.937V18.06zM32.625 10.656c1.238 5.473 1.223 8.836.676 12.68-.973 6.91-4.125 12.203-5.477 13.977-.941-1.211-2.363-3.66-3.32-5.954 0 0-1.79-4.363-2.266-8.613A35 35 0 0 1 22 18.691c0-2.968.395-6.039 1.348-9.375 1.27-4.363 3.773-8.3 4.449-9.316.437.719 3.574 5.18 4.828 10.656m-.367 9.301c.043-2.098-.168-5.64-1.18-9.344-1.027-3.703-3-7.234-3.297-7.687-.293.453-1.87 3.324-3.25 7.8-.367 1.336-1.027 4.25-1.14 7.094-.141 3.434.34 6.852.523 7.809 0-1.125.027-4.926.73-8.063.704-3.14 2.04-6.757 3.137-8.601 1.184 1.941 2.664 6.125 3.184 8.613.52 2.508.789 5.715.676 7.98.324-1.308.562-3.519.617-5.601m-4.461 15.988c.648-1.18 1.73-3.77 1.648-7.062-.14-3.363-1.28-5.813-1.62-6.406-.395.593-1.704 3.406-1.688 6.699.097 3.406 1.054 5.617 1.66 6.77" style="stroke:none;fill-rule:nonzero;fill:#336fbf;fill-opacity:1"/><path d="M35.313 52.54C31.582 56.507 26.293 59 20.406 59 9.136 59 0 49.867 0 38.578 0 27.32 9.137 18.172 20.406 18.172v15.355c-2.926 0-5.851 1.11-8.105 3.348-.535.535-1 1.113-1.406 1.703-3 4.461-2.536 10.57 1.406 14.512a11.47 11.47 0 0 0 8.105 3.363c2.93 0 5.844-1.113 8.082-3.336.012-.012.028-.012.028-.027.015-.016.027-.016.043-.028a5.75 5.75 0 0 0 0-8.12c-2.254-2.239-5.883-2.239-8.122 0-.015.011-.015.011-.03.027v-6.39h14.906z" style="stroke:none;fill-rule:nonzero;fill:#336fbf;fill-opacity:1"/><g clip-path="url(#b)"><path d="M119.91 57.55h-82v-15h82z" style="stroke:none;fill-rule:nonzero;fill:#336fbf;fill-opacity:1"/></g><path d="M43.469 52.082q-.225-1.915-.45-4.727-.446 3.233-.558 4.727Zm1.55-7.234 1.672 11.25H43.7l-.156-2.024h-1.047l-.176 2.024h-3.027l1.496-11.25zM67.332 51.023v3.149c.41-.012.676-.078.79-.195q.167-.172.167-.852v-1.05q0-.722-.152-.876-.153-.152-.805-.176m0-4.25v2.5q.189-.006.29-.007.433 0 .55-.211c.078-.14.117-.547.117-1.211q.001-.533-.098-.742-.095-.212-.25-.266-.157-.058-.609-.063m-2.926-1.925h2.918q1.384-.001 2.094.215.715.215 1.152.87.439.659.438 2.114 0 .989-.309 1.375-.31.389-1.222.598c.68.152 1.136.406 1.378.761q.36.533.36 1.633v1.043c0 .758-.086 1.324-.258 1.688a1.4 1.4 0 0 1-.832.75q-.567.204-2.336.203h-3.383zM95.54 56.098h-2.446v-5.121l-1.524 5.12h-2.562V44.84h2.445v5.078l1.64-5.078h2.446zM114.934 52.082a133 133 0 0 1-.446-4.727q-.446 3.233-.558 4.727Zm1.55-7.234 1.672 11.25h-2.988l-.156-2.024h-1.047l-.176 2.024h-3.023l1.492-11.25z" style="stroke:none;fill-rule:nonzero;fill:#fff;fill-opacity:1"/></svg>
